!!!COM: Bach, Johann Sebastian
!!!CDT: 1685/3//-1750/7/28/
!!!OTL@@DE: Freu' dich sehr, O meine Seele
!!!OTL@EN:  Rejoice greatly, O my soul
!!!OPR@@DE: Cantata: Brich dem Hungrigen dein Brot, BWV 39
!!!ONB: Chorale is at the conclusion to Part II of the Cantata
!!!AGN: 4-Part Chorale
!!!SCT: BH 067
!!!SCT: BWV 39
!!!ONB: Harmony and Root analysis done manually by Craig Sapp (not yet proofed)
**harm	**root	**kern	**kern	**kern	**kern
!	!	!bass	!tenor	!alto	!sprno
*	*Iorgan	*Iorgan	*Iorgan	*Iorgan	*Iorgan
*	*	*clefF4	*clefF4	*clefG2	*clefG2
*k[b-e-a-]	*k[b-e-a-]	*k[b-e-a-]	*k[b-e-a-]	*k[b-e-a-]	*k[b-e-a-]
*E-:	*E-:	*E-:	*E-:	*E-:	*E-:
*M4/4	*M4/4	*M4/4	*M4/4	*M4/4	*M4/4
*met(c)	*met(c)	*met(c)	*met(c)	*met(c)	*met(c)
*MM60	*MM60	*MM60	*MM60	*MM60	*MM60
*>[A,A,B]	*>[A,A,B]	*>[A,A,B]	*>[A,A,B]	*>[A,A,B]	*>[A,A,B]
*>A	*>A	*>A	*>A	*>A	*>A
I	4GG	4E-	4G	4B-	4e-
Vb	4DD	4D	4F	4B-	4f
I	4GG	4E-	4E-	4B-	4g
V	4DD	4BB-	4D	4B-	4f
=2	=2	=2	=2	=2	=2
vi7	8EE	4C	4E-	8B-	4e-
viio7b/V	8CC#	.	.	8A	.
V	4DD	8D	4F	4B-	4d
.	.	8E-	.	.	.
ii	8AA	8F	8F	4A	4c
ii7	8AA	8FF	8E-	.	.
V;	4DD;	4BB-;	4D;	4F;	4B-;
=3	=3	=3	=3	=3	=3
vi	4EE	4C	4G	4c	4e-
Vb	4DD	4D	4F	4B-	4f
I	4GG	4E-	8E-	4B-	4g
.	.	.	8D	.	.
IVb	4CC	4C	4E-	4A-	4a-
=4	=4	=4	=4	=4	=4
Ic	4GG	8BB-	4E-	4B-	4g
.	.	8AA-	.	.	.
V	4DD	4BB-	4D	8B-	4f
.	.	.	.	8A-	.
I;	2GG;	2EE-;	2BB-;	2G;	2e-;
=5:|!	=5:|!	=5:|!	=5:|!	=5:|!	=5:|!
I	4GG	4EE-	4B-	4e-	4g
viiob	4FF#	4FF	4A-	8d	4a-
.	.	.	.	8c	.
iii	8BB	4GG	8D	8B-	4b-
Vc/II	8EE	.	8E	16c	.
.	.	.	.	16d-	.
iib	4AA	8AA-	4F	4c	4a-
.	.	8BB-	.	.	.
=6	=6	=6	=6	=6	=6
vi	4EE	8C	4E-	4c	4g
.	.	8BB-	.	.	.
ii	4AA	4AA-	4A-	4c	4f
V/VI;	2BB;	2GG;	2D;	2B;	2g;
!!linebreak: 2
=7	=7	=7	=7	=7	=7
I	4GG	4GG	8E-	4B-	4b-
.	.	.	8F	.	.
I	4GG	4EE-	4G	4e-	4b-
IV	4CC	4AA-	8A-	4e-	4cc
.	.	.	8G	.	.
V	4DD	4BB-	4F	4d	4b-
=8	=8	=8	=8	=8	=8
IVb	4CC	8C	8E-	4c	4a-
.	.	8D	8F	.	.
I	4GG	4E-	8G	8B-	4g
.	.	.	8A	8c	.
V;	2DD;	2BB-;	2B-;	2d;	2f;
=9	=9	=9	=9	=9	=9
I	4GG	4E-	8B-	4e-	8g
.	.	.	8A-	.	8a-
I	4GG	4EE-	4G	4e-	4b-
ii7	4AA	4FF	4F	8e-	4a-
.	.	.	.	8d	.
Ib	4GG	4GG	4BB-	8e-	8g
.	.	.	.	8d	8f
=10	=10	=10	=10	=10	=10
IV	4CC	8AA-	4C	8c	4e-
.	.	8GG	.	8B-	.
viiob	4FF#	4FF	4D	4A-	4f
I	4GG	8EE-	4E-	8G	2g
.	.	8FF	.	8A	.
V/VI	4BB	4GG	4D	4B	.
=11	=11	=11	=11	=11	=11
vi;	2EE;	2CC;	2C;	2c;	2e-;
vi	4EE	4C	4E-	4c	8g
.	.	.	.	.	8a-
viio7/II	4GG#	4GG	4E	4d-	4b-
=12	=12	=12	=12	=12	=12
iib	4AA	4AA-	4F	8c	4a-
.	.	.	.	8dy	.
viiD7/V	4CC#	4AA	4C	4e-	4g
V	4DD	8BB-	4D	8d	4f
.	.	8AA-	.	8c	.
Ib	4GG	8GG	4E-	4B-	4g
.	.	8EE-	.	.	.
=13	=13	=13	=13	=13	=13
V	2DD	2BB-	4E-	4.B-	2f
.	.	.	4D	.	.
.	.	.	.	8A-	.
I;	2GG;	2EE-;	2BB-;	2G;	2e-;
==	==	==	==	==	==
*-	*-	*-	*-	*-	*-
!!chor2scor: -l 2 -s 0.6 -o %b.pmx
!!!ONB: In the cantata, the key of the chorale is B-flat
!!!YEC: Copyright 2001 by Craig Stuart Sapp
!!!license: GNU General Public License (http://www.gnu.org/copyleft/gpl.html)
!!!SMA: J.S. Bach Chorale Harmonizations, edited by Ludwig Erk, C.F. Peters
!!!PDT: 1850, 1865
